sitelenpona/static/mijomi-1.svg

<svg xmlns="http://www.w3.org/2000/svg" xmlns:xlink="http://www.w3.org/1999/xlink" version="1.1" viewBox="47 -20 890 828">
   <path fill="currentColor" d="M103 729q8 -11 8 -46q0 -36 -3.5 -56t-7.5 -26.5t-4 -10.5q0 -14 -4 -19.5t-4 -13.5q0 -12 14 -25q8 -7 20 -9t61 -2q46 0 68.5 4t58.5 4q34 0 34 -3q0 -2 -37.5 -37t-37.5 -40q0 -4 -12 -13.5t-12 -14.5t-9 -11t-9 -26q0 -13 -3.5 -21t-3.5 -11q0 -14 10.5 -40t10.5 -27 q0 -3 11 -16l12 -12l-19 -22q-34 -40 -34 -101q0 -41 19 -66q11 -14 18 -26q5 -9 33 -16.5t53 -7.5q39 0 77 22t45 22q5 0 22 -15q11 -10 20 -15t35 -9.5t68 -4.5q21 0 44 6.5t35.5 12.5t13.5 7q12 9 19.5 35.5t7.5 51.5q0 23 -8 34.5t-8 15.5q0 6 -7.5 13.5t-9.5 14.5 q-4 11 -12 21q-7 8 -7 11t7 19q25 56 25 73q0 13 -3.5 30t-8.5 31t-10 26t-9 20l-3 7q0 5 -25 33.5t-28 40.5q-3 6 -1 8t4.5 2t11.5 -2q12 -2 61.5 -5.5t63.5 -6.5q7 -2 18 -2q4 0 9.5 0.5t8.5 0.5q9 0 25 -7.5t30 -7.5q23 0 37.5 14.5t14.5 27.5q0 11 -11 20q-15 11 -15 98 q0 25 6.5 33t6.5 20q0 10 -5.5 21t-5.5 15q0 6 -10.5 13t-20.5 7q-11 0 -26.5 -8t-15.5 -21q0 -5 6 -16t3 -31q-3 -12 -3 -32q0 -7 0.5 -13t0.5 -11q0 -19 -4.5 -39.5t-4.5 -24.5q0 -7 -3 -8.5t-18 -1.5q-14 0 -30 5t-45 7q-78 6 -85 12q-5 4 -13 -1t-12 -2q-13 8 -49 8 q-7 0 -56 -4.5t-57 -4.5q-16 0 -32.5 3.5t-19.5 3.5q-5 0 -8.5 -3t-10.5 -3q-5 0 -19.5 2t-24.5 2q-13 0 -29 -2.5t-32 -2.5q-12 0 -32 2t-33 2h-8.5t-10.5 1.5t-7 4.5t1 9q5 7 5 109q0 27 -9 35q-10 8 -18 8q-7 0 -23 -9t-16 -17zM611 214q0 -5 7.5 -16t14 -19.5t4.5 -8.5 q-3 0 8 -15q10 -14 10 -30q0 -2 -2 -30q0 -2 -7 -4.5t-14.5 -5t-9.5 -4.5q-2 -4 -12 -4q-6 0 -25 2t-43.5 10t-24.5 19q0 5 -11 11.5t-15 14.5q-6 13 -23 13q-10 0 -23.5 -5t-22 -10.5t-8.5 -7.5q0 -5 -13 -17t-22 -16q-12 -5 -45 -5q-16 0 -25 1.5t-19 12.5t-10 33 q0 42 21 61q11 11 16 20q8 13 28 13q16 0 38 11t36 21.5t14 12.5q0 6 13 13q10 5 14.5 4t17.5 -10q61 -43 103 -43q16 0 16 -7t7 -7t7 -8zM632 333q0 -12 -2.5 -18.5t-15.5 -12t-37 -5.5q-10 0 -32.5 11t-33.5 21q-7 7 -16 25.5t-11 29.5q-1 9 -21 10q-21 1 -30 -11 q-5 -7 -11.5 -22.5t-12 -25.5t-12.5 -10q-3 0 -6 -4t-9.5 -10t-16.5 -11q-15 -7 -23 -7q-6 0 -11 4.5t-10 4.5q-12 0 -20 15.5t-8 33.5t7 26q1 1 14.5 17.5t22.5 26.5q16 20 41.5 47t40 43.5t14.5 19.5q0 5 43 5h44l11 -20q7 -13 33 -45t31 -46q5 -15 13 -23t8 -11 q0 -2 8 -19.5t8 -38.5z"/>
</svg>

<svg xmlns="http://www.w3.org/2000/svg" xmlns:xlink="http://www.w3.org/1999/xlink" version="1.1" viewBox="47 -20 890 828">
  <g>
    <path fill="currentColor" d="M 103.0,729.0 Q 111.0,718.0 111.0,683.0 Q 111.0,647.0 107.5,627.0 Q 104.0,607.0 100.0,600.5 Q 96.0,594.0 96.0,590.0 Q 96.0,576.0 92.0,570.5 Q 88.0,565.0 88.0,557.0 Q 88.0,545.0 102.0,532.0 Q 110.0,525.0 122.0,523.0 Q 134.0,521.0 183.0,521.0 Q 229.0,521.0 251.5,525.0 Q 274.0,529.0 310.0,529.0 Q 344.0,529.0 344.0,526.0 Q 344.0,524.0 306.5,489.0 Q 269.0,454.0 269.0,449.0 Q 269.0,445.0 257.0,435.5 Q 245.0,426.0 245.0,421.0 Q 245.0,416.0 236.0,410.0 Q 227.0,404.0 227.0,384.0 Q 227.0,371.0 223.5,363.0 Q 220.0,355.0 220.0,352.0 Q 220.0,338.0 230.5,312.0 Q 241.0,286.0 241.0,285.0 Q 241.0,282.0 252.0,269.0 L 264.0,257.0 L 245.0,235.0 Q 211.0,195.0 211.0,134.0 Q 211.0,93.0 230.0,68.0 Q 241.0,54.0 248.0,42.0 Q 253.0,33.0 281.0,25.5 Q 309.0,18.0 334.0,18.0 Q 373.0,18.0 411.0,40.0 Q 449.0,62.0 456.0,62.0 Q 461.0,62.0 478.0,47.0 Q 489.0,37.0 498.0,32.0 Q 507.0,27.0 533.0,22.5 Q 559.0,18.0 601.0,18.0 Q 622.0,18.0 645.0,24.5 Q 668.0,31.0 680.5,37.0 Q 693.0,43.0 694.0,44.0 Q 706.0,53.0 713.5,79.5 Q 721.0,106.0 721.0,131.0 Q 721.0,154.0 713.0,165.5 Q 705.0,177.0 705.0,181.0 Q 705.0,187.0 697.5,194.5 Q 690.0,202.0 688.0,209.0 Q 684.0,220.0 676.0,230.0 Q 669.0,238.0 669.0,241.0 Q 669.0,244.0 676.0,260.0 Q 701.0,316.0 701.0,333.0 Q 701.0,346.0 697.5,363.0 Q 694.0,380.0 689.0,394.0 Q 684.0,408.0 679.0,420.0 Q 674.0,432.0 670.0,440.0 L 667.0,447.0 Q 667.0,452.0 642.0,480.5 Q 617.0,509.0 614.0,521.0 Q 611.0,527.0 613.0,529.0 Q 615.0,531.0 617.5,531.0 Q 620.0,531.0 629.0,529.0 Q 641.0,527.0 690.5,523.5 Q 740.0,520.0 754.0,517.0 Q 761.0,515.0 772.0,515.0 Q 776.0,515.0 781.5,515.5 Q 787.0,516.0 790.0,516.0 Q 799.0,516.0 815.0,508.5 Q 831.0,501.0 845.0,501.0 Q 868.0,501.0 882.5,515.5 Q 897.0,530.0 897.0,543.0 Q 897.0,554.0 886.0,563.0 Q 871.0,574.0 871.0,661.0 Q 871.0,686.0 877.5,694.0 Q 884.0,702.0 884.0,714.0 Q 884.0,724.0 878.5,735.0 Q 873.0,746.0 873.0,750.0 Q 873.0,756.0 862.5,763.0 Q 852.0,770.0 842.0,770.0 Q 831.0,770.0 815.5,762.0 Q 800.0,754.0 800.0,741.0 Q 800.0,736.0 806.0,725.0 Q 812.0,714.0 809.0,694.0 Q 806.0,682.0 806.0,662.0 Q 806.0,655.0 806.5,649.0 Q 807.0,643.0 807.0,638.0 Q 807.0,619.0 802.5,598.5 Q 798.0,578.0 798.0,574.0 Q 798.0,567.0 795.0,565.5 Q 792.0,564.0 777.0,564.0 Q 763.0,564.0 747.0,569.0 Q 731.0,574.0 702.0,576.0 Q 624.0,582.0 617.0,588.0 Q 612.0,592.0 604.0,587.0 Q 596.0,582.0 592.0,585.0 Q 579.0,593.0 543.0,593.0 Q 536.0,593.0 487.0,588.5 Q 438.0,584.0 430.0,584.0 Q 414.0,584.0 397.5,587.5 Q 381.0,591.0 378.0,591.0 Q 373.0,591.0 369.5,588.0 Q 366.0,585.0 359.0,585.0 Q 354.0,585.0 339.5,587.0 Q 325.0,589.0 315.0,589.0 Q 302.0,589.0 286.0,586.5 Q 270.0,584.0 254.0,584.0 Q 242.0,584.0 222.0,586.0 Q 202.0,588.0 189.0,588.0 L 180.5,588.0 Q 180.5,588.0 170.0,589.5 Q 159.5,591.0 163.0,594.0 Q 166.5,597.0 164.0,603.0 Q 169.0,610.0 169.0,712.0 Q 169.0,739.0 160.0,747.0 Q 150.0,755.0 142.0,755.0 Q 135.0,755.0 119.0,746.0 Q 103.0,737.0 103.0,729.0 M 611.0,214.0 Q 611.0,209.0 618.5,198.0 Q 626.0,187.0 632.5,178.5 Q 639.0,170.0 637.0,170.0 Q 634.0,170.0 645.0,155.0 Q 655.0,141.0 655.0,125.0 Q 655.0,123.0 653.0,95.0 Q 653.0,93.0 646.0,90.5 Q 639.0,88.0 631.5,85.5 Q 624.0,83.0 622.0,81.0 Q 620.0,77.0 610.0,77.0 Q 604.0,77.0 585.0,79.0 Q 566.0,81.0 541.5,89.0 Q 517.0,97.0 517.0,108.0 Q 517.0,113.0 506.0,119.5 Q 495.0,126.0 491.0,134.0 Q 485.0,147.0 468.0,147.0 Q 458.0,147.0 444.5,142.0 Q 431.0,137.0 422.5,131.5 Q 414.0,126.0 414.0,124.0 Q 414.0,119.0 401.0,107.0 Q 388.0,95.0 379.0,91.0 Q 367.0,86.0 334.0,86.0 Q 318.0,86.0 309.0,87.5 Q 300.0,89.0 290.0,100.0 Q 280.0,111.0 280.0,133.0 Q 280.0,175.0 301.0,194.0 Q 312.0,205.0 317.0,214.0 Q 325.0,227.0 345.0,227.0 Q 361.0,227.0 383.0,238.0 Q 405.0,249.0 419.0,259.5 Q 433.0,270.0 433.0,272.0 Q 433.0,278.0 446.0,285.0 Q 456.0,290.0 460.5,289.0 Q 465.0,288.0 478.0,279.0 Q 539.0,236.0 581.0,236.0 Q 597.0,236.0 597.0,229.0 Q 597.0,222.0 604.0,222.0 Q 611.0,222.0 611.0,214.0 M 632.0,333.0 Q 632.0,321.0 629.5,314.5 Q 627.0,308.0 614.0,302.5 Q 601.0,297.0 577.0,297.0 Q 567.0,297.0 544.5,308.0 Q 522.0,319.0 511.0,329.0 Q 504.0,336.0 495.0,354.5 Q 486.0,373.0 484.0,384.0 Q 483.0,393.0 463.0,394.0 Q 442.0,395.0 433.0,383.0 Q 428.0,376.0 421.5,360.5 Q 415.0,345.0 409.5,335.0 Q 404.0,325.0 397.0,325.0 Q 394.0,325.0 391.0,321.0 Q 388.0,317.0 381.5,311.0 Q 375.0,305.0 365.0,300.0 Q 350.0,293.0 342.0,293.0 Q 336.0,293.0 331.0,297.5 Q 326.0,302.0 321.0,302.0 Q 309.0,302.0 301.0,317.5 Q 293.0,333.0 293.0,351.0 Q 293.0,369.0 300.0,377.0 Q 301.0,378.0 314.5,394.5 Q 328.0,411.0 337.0,421.0 Q 353.0,441.0 378.5,468.0 Q 404.0,495.0 418.5,511.5 Q 433.0,528.0 433.0,531.0 Q 433.0,536.0 476.0,536.0 L 520.0,536.0 L 531.0,516.0 Q 538.0,503.0 564.0,471.0 Q 590.0,439.0 595.0,425.0 Q 600.0,410.0 608.0,402.0 Q 616.0,394.0 616.0,391.0 Q 616.0,389.0 624.0,371.5 Q 632.0,354.0 632.0,333.0"/>
  </g>
</svg>
